X: 14715
T: Gan Ainm
R: jig
M: 6/8
K: Eminor
|:A|BEE BEE|BAG FED|BEE BAG|FEF DFA|
BEE BEE|BAG FED|BEE BAG|1 FEE E2:|2 FEE E3||
|:Bee edB|dBA FED|Bee edB|BAA d2 d|
Bee edB|dBA FED|BEE BAG|1 FEE E3:|2 FEE E2||

